X: 3
T: Port Chití Rua
R: jig
M: 6/8
L: 1/8
K: Amaj
aec A2B|cAB ABA|aec ABc|Bcd e/f/ge|
aec A2B|cAB ABA|agf gfe|1 f3 f2g:|2 f3 f2e||
caa caa|Bgg Bgg|Aff Aff|efg gfe|
caa caa|Bgg Bgg|fga gfe|f3 f2e|
caa caa|Bgg Bgg|Aff Aff|efg gfe|
aec A2B|cAB ABA|agf gfe|f3 f2g:|a3||

